src/assets/images/icon/gear-wheel/gear-wheel.svg

<svg width="22" height="22" viewBox="0 0 22 22" fill="none" xmlns="http://www.w3.org/2000/svg">
<path d="M11 14C12.6569 14 14 12.6569 14 11C14 9.34315 12.6569 8 11 8C9.34315 8 8 9.34315 8 11C8 12.6569 9.34315 14 11 14Z" stroke="#0F0F0F" stroke-width="1.5"/>
<path d="M12.7655 1.152C12.3985 1 11.9325 1 11.0005 1C10.0685 1 9.60245 1 9.23545 1.152C8.99263 1.25251 8.772 1.3999 8.58617 1.58572C8.40035 1.77155 8.25296 1.99218 8.15245 2.235C8.06045 2.458 8.02345 2.719 8.00945 3.098C8.00322 3.37199 7.92745 3.6399 7.78926 3.87657C7.65107 4.11324 7.455 4.31091 7.21945 4.451C6.98035 4.58504 6.71109 4.6561 6.43698 4.6575C6.16288 4.6589 5.89291 4.59059 5.65245 4.459C5.31645 4.281 5.07345 4.183 4.83245 4.151C4.30677 4.08187 3.77515 4.22431 3.35445 4.547C3.04045 4.79 2.80645 5.193 2.34045 6C1.87445 6.807 1.64045 7.21 1.58945 7.605C1.55509 7.86545 1.57237 8.13012 1.64032 8.38389C1.70826 8.63767 1.82554 8.87556 1.98545 9.084C2.13345 9.276 2.34045 9.437 2.66145 9.639C3.13445 9.936 3.43845 10.442 3.43845 11C3.43845 11.558 3.13445 12.064 2.66145 12.36C2.34045 12.563 2.13245 12.724 1.98545 12.916C1.82554 13.1244 1.70826 13.3623 1.64032 13.6161C1.57237 13.8699 1.55509 14.1345 1.58945 14.395C1.64145 14.789 1.87445 15.193 2.33945 16C2.80645 16.807 3.03945 17.21 3.35445 17.453C3.56289 17.6129 3.80078 17.7302 4.05456 17.7981C4.30833 17.8661 4.573 17.8834 4.83345 17.849C5.07345 17.817 5.31645 17.719 5.65245 17.541C5.89291 17.4094 6.16288 17.3411 6.43698 17.3425C6.71109 17.3439 6.98035 17.415 7.21945 17.549C7.70245 17.829 7.98945 18.344 8.00945 18.902C8.02345 19.282 8.05945 19.542 8.15245 19.765C8.25296 20.0078 8.40035 20.2284 8.58617 20.4143C8.772 20.6001 8.99263 20.7475 9.23545 20.848C9.60245 21 10.0685 21 11.0005 21C11.9325 21 12.3985 21 12.7655 20.848C13.0083 20.7475 13.2289 20.6001 13.4147 20.4143C13.6006 20.2284 13.7479 20.0078 13.8484 19.765C13.9404 19.542 13.9775 19.282 13.9915 18.902C14.0115 18.344 14.2985 17.828 14.7815 17.549C15.0206 17.415 15.2898 17.3439 15.5639 17.3425C15.838 17.3411 16.108 17.4094 16.3484 17.541C16.6844 17.719 16.9274 17.817 17.1674 17.849C17.4279 17.8834 17.6926 17.8661 17.9463 17.7981C18.2001 17.7302 18.438 17.6129 18.6465 17.453C18.9615 17.211 19.1944 16.807 19.6604 16C20.1264 15.193 20.3604 14.79 20.4114 14.395C20.4458 14.1345 20.4285 13.8699 20.3606 13.6161C20.2926 13.3623 20.1754 13.1244 20.0154 12.916C19.8674 12.724 19.6605 12.563 19.3395 12.361C19.1052 12.2186 18.911 12.019 18.775 11.7809C18.6391 11.5428 18.566 11.2741 18.5625 11C18.5625 10.442 18.8665 9.936 19.3395 9.64C19.6605 9.437 19.8684 9.276 20.0154 9.084C20.1754 8.87556 20.2926 8.63767 20.3606 8.38389C20.4285 8.13012 20.4458 7.86545 20.4114 7.605C20.3594 7.211 20.1264 6.807 19.6614 6C19.1944 5.193 18.9615 4.79 18.6465 4.547C18.438 4.38709 18.2001 4.26981 17.9463 4.20187C17.6926 4.13392 17.4279 4.11664 17.1674 4.151C16.9274 4.183 16.6845 4.281 16.3475 4.459C16.1071 4.59042 15.8373 4.65862 15.5634 4.65722C15.2895 4.65582 15.0204 4.58486 14.7815 4.451C14.5459 4.31091 14.3498 4.11324 14.2116 3.87657C14.0734 3.6399 13.9977 3.37199 13.9915 3.098C13.9775 2.718 13.9414 2.458 13.8484 2.235C13.7479 1.99218 13.6006 1.77155 13.4147 1.58572C13.2289 1.3999 13.0083 1.25251 12.7655 1.152Z" stroke="#0F0F0F" stroke-width="1.5"/>
</svg>

<svg xmlns="http://www.w3.org/2000/svg" width="22" height="22" fill="none"><path stroke="#0F0F0F" stroke-width="1.5" d="M11 14a3 3 0 1 0 0-6 3 3 0 0 0 0 6Z"/><path stroke="#0F0F0F" stroke-width="1.5" d="M12.765 1.152C12.398 1 11.932 1 11.002 1c-.932 0-1.399 0-1.766.152a2 2 0 0 0-1.083 1.083c-.092.223-.129.484-.143.863a1.617 1.617 0 0 1-.79 1.353 1.617 1.617 0 0 1-1.567.008c-.336-.178-.579-.276-.82-.308a2 2 0 0 0-1.478.396C3.04 4.79 2.806 5.193 2.34 6c-.466.807-.7 1.21-.75 1.605a2 2 0 0 0 .395 1.479c.148.192.355.353.676.555.473.297.777.803.777 1.361 0 .558-.304 1.064-.777 1.36-.32.203-.529.364-.676.556a2 2 0 0 0-.396 1.479c.052.394.285.798.75 1.605.467.807.7 1.21 1.015 1.453a2 2 0 0 0 1.48.396c.24-.032.482-.13.818-.308a1.617 1.617 0 0 1 1.567.008c.483.28.77.795.79 1.353.014.38.05.64.143.863a2.001 2.001 0 0 0 1.083 1.083c.367.152.834.152 1.766.152.931 0 1.398 0 1.764-.152a2 2 0 0 0 1.083-1.083c.092-.223.13-.483.143-.863.02-.558.308-1.074.79-1.353a1.617 1.617 0 0 1 1.567-.008c.336.178.58.276.82.308a1.998 1.998 0 0 0 1.479-.396c.315-.242.547-.646 1.013-1.453.466-.807.7-1.21.751-1.605a2 2 0 0 0-.396-1.479c-.148-.192-.355-.353-.675-.555A1.618 1.618 0 0 1 18.563 11c0-.558.303-1.064.777-1.36.32-.203.528-.364.675-.556a2 2 0 0 0 .396-1.479c-.052-.394-.285-.798-.75-1.605-.467-.807-.7-1.21-1.015-1.453a2 2 0 0 0-1.479-.396c-.24.032-.483.13-.82.308a1.617 1.617 0 0 1-1.566-.008 1.617 1.617 0 0 1-.79-1.353c-.014-.38-.05-.64-.143-.863a1.999 1.999 0 0 0-1.083-1.083Z"/></svg>
